X: 1004
T: Father Fielding's Favourite
N:"Collected by F.O'Neill"
B:O'Neill's 1004
Z:Transcribed by Dan G. Petersen, dangp@post6.tele.dk
M:6/8
L:1/8
K:G
D|G>AB BcA|AGG G2(B/c/)|dBG FGA|FDD D2D|
G>AB BcA|AGG fed|cAG FGA|{B}AGG G2:|
d|gfg afd|c>Bc dBG|gfg afd|cBc d2d|
gfg gfg|ece efg|d>ed cBA|BGG G2:|


